X: 34728
T: Road To Glountane, The
R: barndance
M: 4/4
K: Dmajor
E2EF A2AB|ceec BAF2|efec AB{c}BA|ecBA FAAF|
E2EF A2AB|ceec BAF2|efec AB{c}BA|1 ecBc A2AF:|2 ecBc A3f||
|:ecef a2 af|ecBA FAAB|cBBA cBBA|cBBA FAE2|
ecef a2 af|ecBA FAAB|cBBA cBBA|1 ceBc A3f:|2 ceBc A2AF||

